X: 9729
T: Deildy Aberteifi
R: jig
M: 6/8
K: Dmajor
daf ede|daf ede|fed edc|def a3|
daf gfe|daf gfe|bag gfe|fge d3:|

